X: 2091
T: WANDERING TINKER
C:
Q: "Reel."
R: Reel.
%R: reel
B: James Kerr "Merry Melodies" v.2 p.12 #091
Z: 2016 John Chambers <jc:trillian.mit.edu>
M: C
L: 1/8
K: C
G |\
c2(ec) egec | (Bd)dc (Bd)de |\
c2(ec) egec | BagB c3 ::\
uA |\
(vGF)EF GABc | (Bd)dc Bcde |\
[1 cGEF GABc | BagB c3 :|\
[2 cedf egfa | gefd c3 |]
